X: 40645
T: Top It Off
R: slip jig
M: 9/8
K: Dmajor
|:B|AGF AGF d2 A|Bcd edc d2 B|
AGF AGF d2 A|Bcd AGF D2:|
|:g|f2 d dcd dcd|e2 =c cBc cBc|
[1 d2 B B^AB BAB|c2 A A^GA AG:|
[2 d=cB dcB d^cB|AGF edc d2||

